src/Pure/16/symbolic/actions/view-sort-ascending-symbolic.svg

<svg height="16" width="16" xmlns="http://www.w3.org/2000/svg">
    <path d="M11.5.416a44.122 44.122 0 0 0-1.334 2.26c-.43.788-.818 1.562-1.166 2.322h2V13h1V5h2a43.07 43.07 0 0 0-1.18-2.324A50.17 50.17 0 0 0 11.5.416zM3 2v3h3V2zm1 1h1v1H4zM3 6v3h3V6zm1 1h1v1H4zm-1 3v3h3v-3zm1 1h1v1H4z" fill="#363636" font-family="sans-serif" font-weight="400" overflow="visible" style="line-height:normal;font-variant-ligatures:none;font-variant-position:normal;font-variant-caps:normal;font-variant-numeric:normal;font-variant-alternates:normal;font-feature-settings:normal;text-indent:0;text-align:start;text-decoration-line:none;text-decoration-style:solid;text-decoration-color:#000;text-transform:none;shape-padding:0;isolation:auto;mix-blend-mode:normal;marker:none" white-space="normal" color="#000"/>
</svg>

<?xml version="1.0" encoding="UTF-8" standalone="no"?>
<svg
   height="16"
   width="16"
   version="1.1"
   id="svg1"
   sodipodi:docname="view-sort-ascending-symbolic.svg"
   inkscape:version="1.4.2 (ebf0e940d0, 2025-05-08)"
   xmlns:inkscape="http://www.inkscape.org/namespaces/inkscape"
   xmlns:sodipodi="http://sodipodi.sourceforge.net/DTD/sodipodi-0.dtd"
   xmlns="http://www.w3.org/2000/svg"
   xmlns:svg="http://www.w3.org/2000/svg">
  <defs
     id="defs1">
     <style
        id="current-color-scheme"
        type="text/css">
        .ColorScheme-Text { color:#363636; }
     </style>
  </defs>
  <sodipodi:namedview
     id="namedview1"
     pagecolor="#ffffff"
     bordercolor="#000000"
     borderopacity="0.25"
     inkscape:showpageshadow="2"
     inkscape:pageopacity="0.0"
     inkscape:pagecheckerboard="0"
     inkscape:deskcolor="#d1d1d1"
     inkscape:zoom="49.6875"
     inkscape:cx="8"
     inkscape:cy="8"
     inkscape:window-width="1920"
     inkscape:window-height="1010"
     inkscape:window-x="0"
     inkscape:window-y="0"
     inkscape:window-maximized="1"
     inkscape:current-layer="svg1" />
  <path
     id="path1"
     style="fill:currentColor"
     class="ColorScheme-Text"
     d="M 11.5 1 L 9 5 L 11 5 L 11 13 L 12 13 L 12 5 L 14 5 L 11.5 1 z M 3 2 L 3 5 L 6 5 L 6 2 L 3 2 z M 4 3 L 5 3 L 5 4 L 4 4 L 4 3 z M 3 6 L 3 9 L 6 9 L 6 6 L 3 6 z M 4 7 L 5 7 L 5 8 L 4 8 L 4 7 z M 3 10 L 3 13 L 6 13 L 6 10 L 3 10 z M 4 11 L 5 11 L 5 12 L 4 12 L 4 11 z " />
</svg>
